svg/us/nm/albuquerque.svg

<?xml version="1.0" encoding="UTF-8" standalone="no"?>
<!-- Created with Inkscape (http://www.inkscape.org/) -->
<svg
   xmlns:dc="http://purl.org/dc/elements/1.1/"
   xmlns:cc="http://creativecommons.org/ns#"
   xmlns:rdf="http://www.w3.org/1999/02/22-rdf-syntax-ns#"
   xmlns:svg="http://www.w3.org/2000/svg"
   xmlns="http://www.w3.org/2000/svg"
   xmlns:sodipodi="http://sodipodi.sourceforge.net/DTD/sodipodi-0.dtd"
   xmlns:inkscape="http://www.inkscape.org/namespaces/inkscape"
   width="800"
   height="470.59"
   id="svg2"
   sodipodi:version="0.32"
   inkscape:version="0.46"
   version="1.0"
   sodipodi:docname="Flag of Albuquerque, New Mexico.svg"
   inkscape:output_extension="org.inkscape.output.svg.inkscape">
  <defs
     id="defs4">
    <inkscape:perspective
       sodipodi:type="inkscape:persp3d"
       inkscape:vp_x="0 : 526.18109 : 1"
       inkscape:vp_y="0 : 1000 : 0"
       inkscape:vp_z="744.09448 : 526.18109 : 1"
       inkscape:persp3d-origin="372.04724 : 350.78739 : 1"
       id="perspective10" />
    <inkscape:perspective
       id="perspective2470"
       inkscape:persp3d-origin="372.04724 : 350.78739 : 1"
       inkscape:vp_z="744.09448 : 526.18109 : 1"
       inkscape:vp_y="0 : 1000 : 0"
       inkscape:vp_x="0 : 526.18109 : 1"
       sodipodi:type="inkscape:persp3d" />
  </defs>
  <sodipodi:namedview
     id="base"
     pagecolor="#ffffff"
     bordercolor="#666666"
     borderopacity="1.0"
     gridtolerance="10000"
     guidetolerance="10"
     objecttolerance="10"
     inkscape:pageopacity="0.0"
     inkscape:pageshadow="2"
     inkscape:zoom="0.55011661"
     inkscape:cx="541.37702"
     inkscape:cy="150.82275"
     inkscape:document-units="px"
     inkscape:current-layer="layer1"
     showgrid="false"
     width="800px"
     inkscape:window-width="1280"
     inkscape:window-height="952"
     inkscape:window-x="-4"
     inkscape:window-y="-4"
     showguides="false"
     inkscape:guide-bbox="true">
    <inkscape:grid
       type="xygrid"
       id="grid2383"
       visible="true"
       enabled="true" />
    <sodipodi:guide
       orientation="0,1"
       position="0.15625,470.58984"
       id="guide2467" />
    <sodipodi:guide
       orientation="1,0"
       position="0,533.08594"
       id="guide2469" />
    <sodipodi:guide
       orientation="1,0"
       position="800,-0.234375"
       id="guide2471" />
    <sodipodi:guide
       orientation="0,1"
       position="800.58203,0"
       id="guide2473" />
    <sodipodi:guide
       orientation="1,0"
       position="400,542"
       id="guide3417" />
    <sodipodi:guide
       orientation="0,1"
       position="397,281"
       id="guide3419" />
  </sodipodi:namedview>
  <metadata
     id="metadata7">
    <rdf:RDF>
      <cc:Work
         rdf:about="">
        <dc:format>image/svg+xml</dc:format>
        <dc:type
           rdf:resource="http://purl.org/dc/dcmitype/StillImage" />
      </cc:Work>
    </rdf:RDF>
  </metadata>
  <g
     inkscape:label="Layer 1"
     inkscape:groupmode="layer"
     id="layer1">
    <rect
       style="opacity:1;fill:#c70f2e;fill-opacity:1;stroke:none;stroke-width:1;stroke-linecap:round;stroke-linejoin:miter;stroke-miterlimit:4;stroke-dasharray:none;stroke-opacity:1"
       id="rect3491"
       width="800"
       height="470.58984"
       x="0"
       y="0.00015633789" />
    <path
       id="path3290"
       style="fill:#f5dc0f;fill-rule:evenodd;stroke:none;stroke-width:1px;stroke-linecap:butt;stroke-linejoin:miter;stroke-opacity:1;fill-opacity:1"
       d="M 394.625,383.43375 C 381.16854,383.95982 376.92586,396.10106 374.875,403.46875 C 372.73136,411.16976 373.54029,423.67459 382,423.7775 C 385.09344,423.81513 388.0005,422.0739 390.09375,420.21875 L 384.875,442.21875 L 393.5,442.21875 L 404.4375,395.78125 C 404.95468,393.59667 404.72172,391.07616 403.75,388.875 C 401.94548,384.78738 398.68662,383.27496 394.625,383.43375 z M 393.34375,389.78125 C 395.26133,389.83533 397.13959,390.74597 396.53125,393.3125 L 391.25,415.59375 C 379.11731,421.56397 381.42886,411.35222 383.375,402.96875 C 384.35154,398.76206 386.57754,392.68705 390.3125,390.4375 C 391.02749,390.00687 392.1932,389.7488 393.34375,389.78125 z M 421.3125,384.09 L 412.75,384.09 L 407.9375,404.7775 C 405.17878,416.63643 409.35555,423.26919 414.875,423.7775 C 418.15997,424.08003 421.54456,422.35493 423.87944,419.06596 L 422.75,423.09 L 431.25,423.09 L 440.5625,384.09 L 432,384.09 L 425.44194,411.70796 C 423.41424,416.12473 419.5936,418.94076 416.3125,416.465 C 413.65852,414.46243 415.31018,409.25358 416.4375,404.5275 L 421.3125,384.09 z M 516.95447,383.43375 C 503.49801,383.95982 499.25533,396.10106 497.20447,403.46875 C 495.06083,411.16976 495.86976,423.67459 504.32947,423.7775 C 507.42291,423.81513 510.32997,422.0739 512.42322,420.21875 L 507.20447,442.21875 L 515.82947,442.21875 L 526.76697,395.78125 C 527.28415,393.59667 527.05119,391.07616 526.07947,388.875 C 524.27495,384.78738 521.01609,383.27496 516.95447,383.43375 z M 515.67322,389.78125 C 517.5908,389.83533 519.46906,390.74597 518.86072,393.3125 L 513.57947,415.59375 C 501.44678,421.56397 503.75833,411.35222 505.70447,402.96875 C 506.68101,398.76206 508.90701,392.68705 512.64197,390.4375 C 513.35696,390.00687 514.52267,389.7488 515.67322,389.78125 z M 545.76329,384.09 L 537.20079,384.09 L 532.38829,404.7775 C 529.62957,416.63643 533.80634,423.26919 539.32579,423.7775 C 542.61076,424.08003 545.99535,422.35493 548.33023,419.06596 L 547.20079,423.09 L 555.70079,423.09 L 565.01329,384.09 L 556.45079,384.09 L 549.89273,411.70796 C 547.86503,416.12473 544.04439,418.94076 540.76329,416.465 C 538.10931,414.46243 539.76097,409.25358 540.88829,404.5275 L 545.76329,384.09 z M 463.125,383.40625 C 455.93939,383.74932 452.75701,386.31345 449.25,390.09375 C 444.85824,394.82776 442.19997,401.01352 441.375,408.21875 C 440.52947,415.60356 444.72557,423.74517 451.375,423.78125 C 456.75995,423.80993 461.45192,422.15464 465.5,416.34375 L 463.05676,413.12906 C 461.40372,415.01424 460.23986,415.98258 458.39644,416.78384 C 455.27512,418.14056 451.48107,419.23399 449.73995,415.69399 C 449.17445,414.54425 449.16151,412.84294 449.3125,410.71875 C 463.67766,411.06162 470.27579,400.56019 471.13756,396.15181 C 472.74417,387.93325 468.44611,383.1522 463.125,383.40625 z M 463.5,397.46875 C 461.95149,401.52548 455.46221,405.30317 449.75628,405.35447 C 450.96482,396.91546 454.90118,389.33747 459.875,388.96875 C 465.30667,388.56609 464.31332,395.33803 463.5,397.46875 z M 587.92935,383.40625 C 580.74374,383.74932 577.56136,386.31345 574.05435,390.09375 C 569.66259,394.82776 567.00432,401.01352 566.17935,408.21875 C 565.33382,415.60356 569.52992,423.74517 576.17935,423.78125 C 581.5643,423.80993 586.25627,422.15464 590.30435,416.34375 L 587.86111,413.12906 C 586.20807,415.01424 585.04421,415.98258 583.20079,416.78384 C 580.07947,418.14056 576.28542,419.23399 574.5443,415.69399 C 573.9788,414.54425 573.96586,412.84294 574.11685,410.71875 C 588.48201,411.06162 595.08014,400.56019 595.94191,396.15181 C 597.54852,387.93325 593.25046,383.1522 587.92935,383.40625 z M 588.30435,397.46875 C 586.75584,401.52548 580.26656,405.30317 574.56063,405.35447 C 575.76917,396.91546 579.70553,389.33747 584.67935,388.96875 C 590.11102,388.56609 589.11767,395.33803 588.30435,397.46875 z M 354.84446,384.09 L 346.28196,384.09 L 341.46946,404.7775 C 338.71074,416.63643 342.88751,423.26919 348.40696,423.7775 C 351.69193,424.08003 355.07652,422.35493 357.4114,419.06596 L 356.28196,423.09 L 364.78196,423.09 L 374.09446,384.09 L 365.53196,384.09 L 358.9739,411.70796 C 356.9462,416.12473 353.12556,418.94076 349.84446,416.465 C 347.19048,414.46243 348.84214,409.25358 349.96946,404.5275 L 354.84446,384.09 z M 315.37813,423.7775 C 328.83459,423.25143 333.07727,411.11019 335.12813,403.7425 C 337.27177,396.04149 336.46284,383.53666 328.00313,383.43375 C 324.90969,383.39612 322.00263,385.13735 319.90938,386.9925 L 326.25313,360.6175 L 317.62813,360.6175 L 306.19063,408.055 C 304.45111,415.86104 306.38136,423.3441 315.37813,423.7775 z M 314.09688,410.52375 L 318.75313,391.6175 C 330.88582,385.64728 328.57427,395.85903 326.62813,404.2425 C 325.65159,408.44919 323.42559,414.5242 319.69063,416.77375 C 314.56894,418.67038 312.88313,415.66403 314.09688,410.52375 z M 287.15663,416.63765 L 300.625,360.715 L 309.25,360.715 L 294.375,423.09 C 289.83883,422.57067 288.15033,419.55539 287.15663,416.63765 z M 494.4375,384.09375 C 491.55707,384.26624 488.73052,385.9659 486.6875,388.84375 L 487.8125,384.8125 L 479.3125,384.8125 L 470,423.8125 L 478.5625,423.8125 L 485.125,396.1875 C 488.08663,390.36739 493.58787,391.43816 496.71859,393.15257 L 499.90625,386.03125 C 498.68568,384.92568 497.25033,384.26893 495.6875,384.125 C 495.27688,384.08718 494.84899,384.06911 494.4375,384.09375 z M 279.34375,353.0625 C 275.35785,353.05705 272.13945,354.9123 269.75,357.34375 C 276.33396,354.89877 284.97578,355.42612 282.125,367.09375 L 275.375,394.6875 C 267.83796,396.40612 261.51167,396.33588 255.90625,394.78125 C 256.435,393.02259 256.96397,391.34882 257.5,389.84375 C 262.21528,376.6043 269.37175,365.06154 275.5,359.34375 C 275.25117,359.31468 275.00252,359.28736 274.75,359.28125 C 266.9218,359.09196 257.68856,368.03927 250.5,385.34375 C 247.42153,392.75433 246.52867,401.53171 246.90625,412.0625 C 246.9977,414.61292 245.96073,415.84375 242.75,415.84375 L 233.8125,415.84375 C 230.06115,415.84375 227.31254,418.60908 225.40625,421.6875 C 224.45847,423.21805 223.15246,423.71875 221.40625,423.71875 L 211.03125,423.71875 C 206.57801,423.71875 202.74003,429.12391 201.59375,431.6875 L 215.4375,431.71875 C 218.9619,431.7267 222.90385,430.22707 223.84375,427.28125 C 224.45839,425.35484 225.23385,423.84375 227.1875,423.84375 L 237.25,423.84375 C 246.53998,423.84375 250.83126,411.82928 254.15625,400.71875 C 259.90669,403.23586 266.88029,402.82892 273.59375,401.96875 L 270,416.71875 C 270.94199,419.86009 274.014,423.09375 277.25,423.09375 L 289.625,371.21875 C 291.17932,364.70318 292.03438,357.19937 285.25,354.34375 C 283.12988,353.45137 281.15552,353.06498 279.34375,353.0625 z M 243.78125,404.53125 C 244.30746,389.04608 250.37557,371.20112 262.15257,362.43138 C 242.39633,365.95552 238.5331,389.72437 243.78125,404.53125 z"
       sodipodi:nodetypes="cssccccsccccssccccsccccccscccssccccsccccssccccsccccccscccsssccsscscccsccsssccsscscccsccccsccccccscccsscccccccsccccccccccccccccsccccccscsssccsccccscccccccscccc" />
    <path
       style="opacity:1;fill:#f5dc0f;fill-opacity:1;fill-rule:evenodd;stroke:none;stroke-width:1px;stroke-linecap:butt;stroke-linejoin:miter;stroke-opacity:1"
       d="M 140.80512,124.44307 C 140.48954,116.8959 137.95674,109.29261 133.84446,102.14704 C 145.40584,83.622779 143.15705,58.912707 127.06066,42.816361 C 120.00663,35.762334 111.31952,31.366697 102.20147,29.624435 C 104.88234,31.270212 107.41539,33.247368 109.73654,35.568516 C 122.55956,48.391552 125.06105,67.622572 117.27168,82.966804 C 109.71805,77.067306 100.88709,72.515567 91.572737,67.697681 C 84.623787,64.10338 79.717594,57.217864 77.806247,40.45197 C 71.216273,40.15034 66.12818,42.142295 62.316259,45.954216 C 58.504317,49.766157 56.512369,54.854243 56.814014,61.444203 C 73.579929,63.355529 80.465367,68.261662 84.059727,75.210691 C 88.877607,84.525041 93.429347,93.356005 99.328847,100.90964 C 83.984607,108.69901 64.753659,106.19759 51.930561,93.374496 C 49.609412,91.053347 47.632256,88.520293 45.98648,85.839425 C 47.728734,94.957482 52.124456,103.64465 59.178405,110.69861 C 75.274701,126.79491 99.984907,129.04385 118.50909,117.48242 C 125.65466,121.59469 133.25786,124.12744 140.80512,124.44307 z"
       id="path3404" />
    <path
       style="opacity:1;fill:#f5dc0f;fill-opacity:1;stroke:none;stroke-width:11.78761100999999900;stroke-linecap:round;stroke-linejoin:miter;stroke-miterlimit:4;stroke-dasharray:none;stroke-opacity:1"
       d="M 384.15625 22.34375 L 384.15625 129.125 C 381.52847 129.81543 378.98223 130.67432 376.5 131.6875 L 376.5 46.03125 L 364.5 46.03125 L 364.5 138.1875 C 358.29317 142.49038 352.89663 147.88692 348.59375 154.09375 L 256.4375 154.09375 L 256.4375 166.09375 L 342.09375 166.09375 C 341.08057 168.57598 340.22168 171.12222 339.53125 173.75 L 232.75 173.75 L 232.75 185.75 L 337.625 185.5 C 337.53694 186.85258 337.5 188.21954 337.5 189.59375 C 337.5 190.96796 337.53694 192.33501 337.625 193.6875 L 232.75 193.4375 L 232.75 205.4375 L 339.53125 205.4375 C 340.22168 208.06458 341.08057 210.61248 342.09375 213.09375 L 256.4375 213.09375 L 256.4375 225.09375 L 348.625 225.09375 C 352.92561 231.28867 358.29982 236.67401 364.5 240.96875 L 364.5 333.15625 L 376.5 333.15625 L 376.5 247.46875 C 378.98223 248.48097 381.52847 249.34152 384.15625 250.03125 L 384.15625 356.84375 L 396.15625 356.84375 L 395.90625 251.9375 C 397.25883 252.02546 398.62579 252.0625 400 252.0625 C 401.37421 252.0625 402.74117 252.02546 404.09375 251.9375 L 403.84375 356.84375 L 415.84375 356.84375 L 415.84375 250.03125 C 418.47153 249.34152 421.01777 248.48097 423.5 247.46875 L 423.5 333.15625 L 435.5 333.15625 L 435.5 240.96875 C 441.70018 236.67401 447.07439 231.28867 451.375 225.09375 L 543.5625 225.09375 L 543.5625 213.09375 L 457.90625 213.09375 C 458.91943 210.61248 459.77832 208.06458 460.46875 205.4375 L 567.25 205.4375 L 567.25 193.4375 L 462.375 193.6875 C 462.46306 192.33501 462.5 190.96796 462.5 189.59375 C 462.5 188.21954 462.46306 186.85258 462.375 185.5 L 567.25 185.75 L 567.25 173.75 L 460.46875 173.75 C 459.77832 171.12222 458.91943 168.57598 457.90625 166.09375 L 543.5625 166.09375 L 543.5625 154.09375 L 451.40625 154.09375 C 447.10337 147.88692 441.70683 142.49038 435.5 138.1875 L 435.5 46.03125 L 423.5 46.03125 L 423.5 131.6875 C 421.01777 130.67432 418.47153 129.81543 415.84375 129.125 L 415.84375 22.34375 L 403.84375 22.34375 L 404.09375 127.21875 C 402.74117 127.13069 401.37421 127.09375 400 127.09375 C 398.62579 127.09375 397.25883 127.13069 395.90625 127.21875 L 396.15625 22.34375 L 384.15625 22.34375 z M 400 139.0625 C 427.94161 139.06249 450.5 161.65213 450.5 189.59375 C 450.49998 217.53538 427.94162 240.09375 400 240.09375 C 372.05837 240.09374 349.5 217.53538 349.5 189.59375 C 349.5 161.65213 372.05838 139.0625 400 139.0625 z "
       id="path3423" />
    <path
       id="path3458"
       style="fill:#f5dc0f;fill-rule:evenodd;stroke:none;stroke-width:1px;stroke-linecap:butt;stroke-linejoin:miter;stroke-opacity:1;fill-opacity:1"
       d="M 371.23106,205.77851 C 369.29484,210.95758 371.19003,215.67896 374.7666,218.15287 C 381.53891,197.75345 387.50725,184.36933 394.74236,171.83738 L 376.00403,171.83738 L 370.87751,180.49944 L 384.48931,180.49944 C 380.0699,188.19847 375.31518,194.85415 371.23106,205.77851 zM 404.21875,170.25 C 397.53833,170.25 391.24637,178.65645 390.15625,189 C 389.06613,199.34356 393.60084,207.71874 400.28125,207.71875 C 406.96167,207.71875 413.25362,199.34356 414.34375,189 C 415.43387,178.65644 410.89917,170.25 404.21875,170.25 z M 401.46875,177.84375 C 405.06775,177.84375 408.34127,182.85241 408.78125,189 C 409.22124,195.14759 406.66151,200.125 403.0625,200.125 C 399.46349,200.125 396.18998,195.14759 395.75,189 C 395.31003,182.85241 397.86974,177.84375 401.46875,177.84375 zM 438.125,159.96875 C 428.35549,167.45602 419.05386,175.60093 417.5,188.09375 C 416.47978,196.29615 419.06754,207.70302 427.25,207.71875 C 431.87039,207.72763 438.82592,205.12517 441.625,189.96875 C 443.62668,179.13008 438.156,171.79085 433.375,170.46875 C 435.93931,167.09182 437.87506,165.38544 441,162.84375 L 438.125,159.96875 z M 436.25,189.90625 C 436.83451,197.46827 431.6068,203.1044 427.125,198.53125 C 423.58711,194.92125 421.24957,186.94715 428,177.96875 C 434.44668,178.06469 435.85259,184.76478 436.25,189.90625 zM 362.83417,206.83917 L 369.3749,171.92577 L 362.21545,171.92577 L 356.90518,199.89321 C 355.86506,205.37119 359.31092,206.83917 362.83417,206.83917 z" />
  </g>
</svg>

<svg xmlns="http://www.w3.org/2000/svg" width="800" height="470.59" version="1"><path fill="#c70f2e" d="M0 0h800v470.59H0z"/><path d="M394.625 383.434c-13.456.526-17.7 12.667-19.75 20.035-2.144 7.7-1.335 20.206 7.125 20.308 3.093.038 6-1.703 8.094-3.558l-5.219 22h8.625l10.938-46.438c.517-2.184.284-4.705-.688-6.906-1.805-4.088-5.063-5.6-9.125-5.441zm-1.281 6.347c1.917.054 3.796.965 3.187 3.531l-5.281 22.282c-12.133 5.97-9.821-4.242-7.875-12.625.977-4.207 3.203-10.282 6.938-12.531.714-.431 1.88-.69 3.03-.657zm27.969-5.691h-8.563l-4.813 20.688c-2.758 11.858 1.419 18.491 6.938 19 3.285.302 6.67-1.423 9.004-4.712l-1.129 4.024h8.5l9.313-39H432l-6.558 27.618c-2.028 4.417-5.848 7.233-9.13 4.757-2.653-2.003-1.002-7.211.125-11.938l4.875-20.437zm95.641-.656c-13.456.526-17.699 12.667-19.75 20.035-2.143 7.7-1.334 20.206 7.125 20.308 3.094.038 6.001-1.703 8.094-3.558l-5.219 22h8.625l10.938-46.438c.517-2.184.284-4.705-.688-6.906-1.804-4.088-5.063-5.6-9.125-5.441zm-1.28 6.347c1.917.054 3.795.965 3.187 3.531l-5.282 22.282c-12.132 5.97-9.82-4.242-7.875-12.625.977-4.207 3.203-10.282 6.938-12.531.715-.431 1.88-.69 3.031-.657zm30.09-5.691H537.2l-4.813 20.688c-2.758 11.858 1.418 18.491 6.938 19 3.285.302 6.67-1.423 9.004-4.712l-1.13 4.024h8.5l9.313-39h-8.562l-6.558 27.618c-2.028 4.417-5.849 7.233-9.13 4.757-2.654-2.003-1.002-7.211.125-11.938l4.875-20.437zm-82.639-.684c-7.186.343-10.368 2.907-13.875 6.688-4.392 4.734-7.05 10.92-7.875 18.125-.846 7.385 3.35 15.526 10 15.562 5.385.029 10.077-1.626 14.125-7.437l-2.443-3.215c-1.653 1.885-2.817 2.854-4.66 3.655-3.122 1.357-6.916 2.45-8.657-1.09-.566-1.15-.578-2.851-.428-4.975 14.366.343 20.964-10.159 21.826-14.567 1.606-8.219-2.692-13-8.013-12.746zm.375 14.063c-1.549 4.056-8.038 7.834-13.744 7.885 1.209-8.439 5.145-16.017 10.119-16.385 5.432-.403 4.438 6.369 3.625 8.5zm124.43-14.063c-7.186.343-10.369 2.907-13.876 6.688-4.391 4.734-7.05 10.92-7.875 18.125-.845 7.385 3.35 15.526 10 15.562 5.385.029 10.077-1.626 14.125-7.437l-2.443-3.215c-1.653 1.885-2.817 2.854-4.66 3.655-3.122 1.357-6.916 2.45-8.657-1.09-.565-1.15-.578-2.851-.427-4.975 14.365.343 20.963-10.159 21.825-14.567 1.607-8.219-2.692-13-8.013-12.746zm.374 14.063c-1.548 4.056-8.037 7.834-13.743 7.885 1.208-8.439 5.145-16.017 10.118-16.385 5.432-.403 4.439 6.369 3.625 8.5zm-233.46-13.379h-8.562l-4.813 20.688c-2.758 11.858 1.419 18.491 6.938 19 3.285.302 6.67-1.423 9.004-4.712l-1.129 4.024h8.5l9.312-39h-8.562l-6.558 27.618c-2.028 4.417-5.848 7.233-9.13 4.757-2.654-2.003-1.002-7.211.125-11.938l4.875-20.437zm-39.466 39.688c13.457-.527 17.7-12.668 19.75-20.036 2.144-7.7 1.335-20.205-7.125-20.308-3.093-.038-6 1.703-8.094 3.558l6.344-26.375h-8.625l-11.437 47.438c-1.74 7.806.19 15.29 9.187 15.722zm-1.281-13.254l4.656-18.906c12.133-5.97 9.821 4.241 7.875 12.625-.976 4.206-3.202 10.281-6.937 12.53-5.122 1.897-6.808-1.109-5.594-6.25zm-26.94 6.114l13.468-55.923h8.625l-14.875 62.375c-4.536-.52-6.225-3.535-7.218-6.452zm207.28-32.544c-2.88.172-5.706 1.872-7.75 4.75l1.125-4.031h-8.5l-9.312 39h8.563l6.562-27.625c2.962-5.82 8.463-4.75 11.594-3.035l3.187-7.122c-1.22-1.105-2.656-1.762-4.219-1.906a8.355 8.355 0 0 0-1.25-.031zm-215.093-31.031c-3.986-.006-7.205 1.85-9.594 4.28 6.584-2.444 15.226-1.917 12.375 9.75l-6.75 27.594c-7.537 1.72-13.863 1.649-19.469.094a105.671 105.671 0 0 1 1.594-4.937c4.715-13.24 11.872-24.782 18-30.5a8.147 8.147 0 0 0-.75-.063c-7.828-.189-17.061 8.758-24.25 26.063-3.078 7.41-3.971 16.188-3.594 26.719.092 2.55-.945 3.78-4.156 3.78h-8.938c-3.75 0-6.5 2.766-8.406 5.844-.948 1.531-2.254 2.032-4 2.032h-10.375c-4.453 0-8.291 5.405-9.437 7.969l13.844.03c3.524.009 7.466-1.49 8.406-4.437.614-1.926 1.39-3.437 3.344-3.437h10.062c9.29 0 13.581-12.015 16.906-23.125 5.75 2.517 12.724 2.11 19.438 1.25L270 416.719c.942 3.141 4.014 6.375 7.25 6.375l12.375-51.875c1.554-6.516 2.41-14.02-4.375-16.875-2.12-.893-4.094-1.279-5.906-1.281zM243.78 404.53c.526-15.485 6.595-33.33 18.372-42.1-19.757 3.525-23.62 27.293-18.372 42.1zM140.805 124.443c-.315-7.547-2.848-15.15-6.96-22.296 11.56-18.524 9.312-43.234-6.784-59.33-7.054-7.055-15.741-11.45-24.86-13.193a40.909 40.909 0 0 1 7.536 5.945c12.823 12.823 15.324 32.054 7.535 47.398-7.554-5.9-16.385-10.451-25.7-15.27-6.948-3.594-11.854-10.48-13.766-27.245-6.59-.302-11.678 1.69-15.49 5.502-3.812 3.812-5.804 8.9-5.502 15.49 16.766 1.912 23.651 6.818 27.246 13.767 4.818 9.314 9.37 18.145 15.269 25.699-15.344 7.789-34.575 5.288-47.398-7.536a40.909 40.909 0 0 1-5.945-7.535c1.743 9.118 6.138 17.806 13.192 24.86 16.097 16.096 40.807 18.345 59.331 6.783 7.146 4.113 14.749 6.645 22.296 6.961z" fill="#f5dc0f" fill-rule="evenodd"/><path d="M384.156 22.344v106.781a61.748 61.748 0 0 0-7.656 2.563V46.03h-12v92.156a63.148 63.148 0 0 0-15.906 15.907h-92.156v12h85.656a61.748 61.748 0 0 0-2.563 7.656H232.75v12l104.875-.25a63.069 63.069 0 0 0-.125 4.094c0 1.374.037 2.741.125 4.094l-104.875-.25v12h106.781a61.733 61.733 0 0 0 2.563 7.656h-85.656v12h92.187a63.035 63.035 0 0 0 15.875 15.875v92.187h12V247.47a61.791 61.791 0 0 0 7.656 2.562v106.813h12l-.25-104.906a63.14 63.14 0 0 0 4.094.125 63.14 63.14 0 0 0 4.094-.125l-.25 104.906h12V250.03a61.791 61.791 0 0 0 7.656-2.562v85.687h12V240.97a63.035 63.035 0 0 0 15.875-15.875h92.188v-12h-85.657a61.733 61.733 0 0 0 2.563-7.656H567.25v-12l-104.875.25c.088-1.353.125-2.72.125-4.094s-.037-2.741-.125-4.094l104.875.25v-12H460.469a61.748 61.748 0 0 0-2.563-7.656h85.656v-12h-92.156a63.148 63.148 0 0 0-15.906-15.906V46.03h-12v85.656a61.748 61.748 0 0 0-7.656-2.562V22.344h-12l.25 104.875a63.069 63.069 0 0 0-4.094-.125c-1.374 0-2.741.037-4.094.125l.25-104.875h-12zM400 139.063c27.942 0 50.5 22.59 50.5 50.53 0 27.942-22.558 50.5-50.5 50.5s-50.5-22.558-50.5-50.5c0-27.94 22.558-50.53 50.5-50.53z" fill="#f5dc0f"/><path d="M371.231 205.779c-1.936 5.179-.041 9.9 3.536 12.374 6.772-20.4 12.74-33.784 19.975-46.316h-18.738l-5.126 8.662h13.611c-4.42 7.7-9.174 14.355-13.258 25.28zm32.988-35.529c-6.68 0-12.973 8.406-14.063 18.75-1.09 10.344 3.445 18.719 10.125 18.719s12.973-8.375 14.063-18.719c1.09-10.344-3.445-18.75-10.125-18.75zm-2.75 7.594c3.599 0 6.872 5.008 7.312 11.156.44 6.148-2.12 11.125-5.719 11.125s-6.872-4.977-7.312-11.125c-.44-6.148 2.12-11.156 5.719-11.156zm36.656-17.875c-9.77 7.487-19.071 15.632-20.625 28.125-1.02 8.202 1.568 19.609 9.75 19.625 4.62.009 11.576-2.594 14.375-17.75 2.002-10.839-3.469-18.178-8.25-19.5 2.564-3.377 4.5-5.084 7.625-7.625l-2.875-2.875zm-1.875 29.937c.585 7.562-4.643 13.198-9.125 8.625-3.538-3.61-5.875-11.584.875-20.562 6.447.096 7.853 6.796 8.25 11.937zm-73.416 16.933l6.54-34.913h-7.159l-5.31 27.967c-1.04 5.478 2.406 6.946 5.93 6.946z" fill="#f5dc0f" fill-rule="evenodd"/></svg>
